doc/controllers_brief.svg

<?xml version="1.0" encoding="UTF-8" standalone="no"?>
<!DOCTYPE svg PUBLIC "-//W3C//DTD SVG 1.1//EN"
 "http://www.w3.org/Graphics/SVG/1.1/DTD/svg11.dtd">
<!-- Generated by graphviz version 2.38.0 (20140413.2041)
 -->
<!-- Title: controllers_diagram Pages: 1 -->
<svg width="1862pt" height="1192pt"
 viewBox="0.00 0.00 1861.79 1192.02" xmlns="http://www.w3.org/2000/svg" xmlns:xlink="http://www.w3.org/1999/xlink">
<g id="graph0" class="graph" transform="scale(1 1) rotate(0) translate(913.012 683.5)">
<title>controllers_diagram</title>
<polygon fill="white" stroke="none" points="-913.012,508.522 -913.012,-683.5 948.778,-683.5 948.778,508.522 -913.012,508.522"/>
<!-- _diagram_info -->
<g id="node1" class="node"><title>_diagram_info</title>
<text text-anchor="start" x="614.312" y="-665.1" font-family="Times,serif" font-size="13.00">Controllers diagram</text>
<text text-anchor="start" x="614.312" y="-652.1" font-family="Times,serif" font-size="13.00">Date: Mar 07 2015 &#45; 22:07</text>
<text text-anchor="start" x="614.312" y="-639.1" font-family="Times,serif" font-size="13.00">Migration version: 20150303221447</text>
<text text-anchor="start" x="614.312" y="-626.1" font-family="Times,serif" font-size="13.00">Generated by RailRoady 1.3.0</text>
<text text-anchor="start" x="614.312" y="-613.1" font-family="Times,serif" font-size="13.00">http://railroady.prestonlee.com</text>
</g>
<!-- AlertsController -->
<g id="node2" class="node"><title>AlertsController</title>
<ellipse fill="none" stroke="black" cx="-415.392" cy="454.299" rx="68.1374" ry="18"/>
<text text-anchor="middle" x="-415.392" y="458.499" font-family="Times,serif" font-size="14.00">AlertsController</text>
</g>
<!-- AlliesController -->
<g id="node3" class="node"><title>AlliesController</title>
<ellipse fill="none" stroke="black" cx="838.897" cy="434.223" rx="67.6615" ry="18"/>
<text text-anchor="middle" x="838.897" y="438.423" font-family="Times,serif" font-size="14.00">AlliesController</text>
</g>
<!-- ApplicationController -->
<g id="node4" class="node"><title>ApplicationController</title>
<ellipse fill="none" stroke="black" cx="-28.1641" cy="170.104" rx="88.417" ry="18"/>
<text text-anchor="middle" x="-28.1641" y="174.304" font-family="Times,serif" font-size="14.00">ApplicationController</text>
</g>
<!-- ApplicationController&#45;&gt;AlertsController -->
<g id="edge1" class="edge"><title>ApplicationController&#45;&gt;AlertsController</title>
<path fill="none" stroke="black" d="M-51.8041,187.453C-121.098,238.31 -323.164,386.611 -392.061,437.176"/>
</g>
<!-- ApplicationController&#45;&gt;AlliesController -->
<g id="edge2" class="edge"><title>ApplicationController&#45;&gt;AlliesController</title>
<path fill="none" stroke="black" d="M20.9371,185.061C174.893,231.958 646.668,375.667 794.272,420.63"/>
</g>
<!-- CategoriesController -->
<g id="node5" class="node"><title>CategoriesController</title>
<ellipse fill="none" stroke="black" cx="-74.0827" cy="-74.7595" rx="84.0496" ry="18"/>
<text text-anchor="middle" x="-74.0827" y="-70.5595" font-family="Times,serif" font-size="14.00">CategoriesController</text>
</g>
<!-- ApplicationController&#45;&gt;CategoriesController -->
<g id="edge3" class="edge"><title>ApplicationController&#45;&gt;CategoriesController</title>
<path fill="none" stroke="black" d="M-31.5406,152.098C-40.0324,106.816 -62.2042,-11.4167 -70.7012,-56.7277"/>
</g>
<!-- MedicationsController -->
<g id="node6" class="node"><title>MedicationsController</title>
<ellipse fill="none" stroke="black" cx="209.309" cy="186.966" rx="90.3463" ry="18"/>
<text text-anchor="middle" x="209.309" y="191.166" font-family="Times,serif" font-size="14.00">MedicationsController</text>
</g>
<!-- ApplicationController&#45;&gt;MedicationsController -->
<g id="edge4" class="edge"><title>ApplicationController&#45;&gt;MedicationsController</title>
<path fill="none" stroke="black" d="M55.2262,176.025C77.5447,177.61 101.696,179.325 124.111,180.916"/>
</g>
<!-- MoodsController -->
<g id="node7" class="node"><title>MoodsController</title>
<ellipse fill="none" stroke="black" cx="-364.107" cy="-78.5231" rx="71.0531" ry="18"/>
<text text-anchor="middle" x="-364.107" y="-74.3231" font-family="Times,serif" font-size="14.00">MoodsController</text>
</g>
<!-- ApplicationController&#45;&gt;MoodsController -->
<g id="edge5" class="edge"><title>ApplicationController&#45;&gt;MoodsController</title>
<path fill="none" stroke="black" d="M-51.787,152.621C-113.618,106.86 -279.659,-16.0243 -340.956,-61.3895"/>
</g>
<!-- PagesController -->
<g id="node9" class="node"><title>PagesController</title>
<ellipse fill="none" stroke="black" cx="226.762" cy="486.522" rx="67.177" ry="18"/>
<text text-anchor="middle" x="226.762" y="490.722" font-family="Times,serif" font-size="14.00">PagesController</text>
</g>
<!-- ApplicationController&#45;&gt;PagesController -->
<g id="edge7" class="edge"><title>ApplicationController&#45;&gt;PagesController</title>
<path fill="none" stroke="black" d="M-13.7278,188.022C31.142,243.715 167.831,413.376 212.484,468.8"/>
</g>
<!-- ProfileController -->
<g id="node10" class="node"><title>ProfileController</title>
<ellipse fill="none" stroke="black" cx="-168.742" cy="476.67" rx="70.0841" ry="18"/>
<text text-anchor="middle" x="-168.742" y="480.87" font-family="Times,serif" font-size="14.00">ProfileController</text>
</g>
<!-- ApplicationController&#45;&gt;ProfileController -->
<g id="edge8" class="edge"><title>ApplicationController&#45;&gt;ProfileController</title>
<path fill="none" stroke="black" d="M-36.5369,188.363C-61.54,242.888 -135.467,404.106 -160.413,458.507"/>
</g>
<!-- SearchController -->
<g id="node12" class="node"><title>SearchController</title>
<ellipse fill="none" stroke="black" cx="29.9919" cy="466.58" rx="70.534" ry="18"/>
<text text-anchor="middle" x="29.9919" y="470.78" font-family="Times,serif" font-size="14.00">SearchController</text>
</g>
<!-- ApplicationController&#45;&gt;SearchController -->
<g id="edge10" class="edge"><title>ApplicationController&#45;&gt;SearchController</title>
<path fill="none" stroke="black" d="M-24.6138,188.203C-14.2314,241.132 15.9969,395.234 26.4141,448.34"/>
</g>
<!-- StrategiesController -->
<g id="node13" class="node"><title>StrategiesController</title>
<ellipse fill="none" stroke="black" cx="-300.974" cy="164.769" rx="81.1594" ry="18"/>
<text text-anchor="middle" x="-300.974" y="168.969" font-family="Times,serif" font-size="14.00">StrategiesController</text>
</g>
<!-- ApplicationController&#45;&gt;StrategiesController -->
<g id="edge11" class="edge"><title>ApplicationController&#45;&gt;StrategiesController</title>
<path fill="none" stroke="black" d="M-115.985,168.386C-149.318,167.734 -187.104,166.995 -219.797,166.356"/>
</g>
<!-- MomentsController -->
<g id="node14" class="node"><title>MomentsController</title>
<ellipse fill="none" stroke="black" cx="474.053" cy="480.211" rx="76.2181" ry="18"/>
<text text-anchor="middle" x="474.053" y="484.411" font-family="Times,serif" font-size="14.00">MomentsController</text>
</g>
<!-- ApplicationController&#45;&gt;MomentsController -->
<g id="edge12" class="edge"><title>ApplicationController&#45;&gt;MomentsController</title>
<path fill="none" stroke="black" d="M-0.447414,187.218C87.4608,241.499 359.372,409.398 446.729,463.339"/>
</g>
<!-- DeviseController -->
<g id="node21" class="node"><title>DeviseController</title>
<ellipse fill="none" stroke="black" cx="178.867" cy="-64.2187" rx="71.0272" ry="18"/>
<text text-anchor="middle" x="178.867" y="-60.0187" font-family="Times,serif" font-size="14.00">DeviseController</text>
</g>
<!-- ApplicationController&#45;&gt;DeviseController -->
<g id="edge19" class="edge"><title>ApplicationController&#45;&gt;DeviseController</title>
<path fill="none" stroke="black" d="M-12.2625,152.106C26.369,108.382 124.8,-3.02532 163.194,-46.4804"/>
</g>
<!-- Ckeditor::ApplicationController -->
<g id="node22" class="node"><title>Ckeditor::ApplicationController</title>
<ellipse fill="none" stroke="black" cx="-731.025" cy="60.0363" rx="124.14" ry="18"/>
<text text-anchor="middle" x="-731.025" y="64.2363" font-family="Times,serif" font-size="14.00">Ckeditor::ApplicationController</text>
</g>
<!-- ApplicationController&#45;&gt;Ckeditor::ApplicationController -->
<g id="edge20" class="edge"><title>ApplicationController&#45;&gt;Ckeditor::ApplicationController</title>
<path fill="none" stroke="black" d="M-98.4507,159.097C-228.567,138.721 -506.448,95.2048 -646.553,73.2645"/>
</g>
<!-- OmniauthCallbacksController -->
<g id="node8" class="node"><title>OmniauthCallbacksController</title>
<ellipse fill="none" stroke="black" cx="-100.854" cy="-371.128" rx="116.899" ry="18"/>
<text text-anchor="middle" x="-100.854" y="-366.928" font-family="Times,serif" font-size="14.00">OmniauthCallbacksController</text>
</g>
<!-- RegistrationsController -->
<g id="node11" class="node"><title>RegistrationsController</title>
<ellipse fill="none" stroke="black" cx="841.364" cy="39.9732" rx="93.2533" ry="18"/>
<text text-anchor="middle" x="841.364" y="44.1732" font-family="Times,serif" font-size="14.00">RegistrationsController</text>
</g>
<!-- Devise::ConfirmationsController -->
<g id="node15" class="node"><title>Devise::ConfirmationsController</title>
<ellipse fill="none" stroke="black" cx="818.242" cy="-342.476" rx="126.571" ry="18"/>
<text text-anchor="middle" x="818.242" y="-338.276" font-family="Times,serif" font-size="14.00">Devise::ConfirmationsController</text>
</g>
<!-- Devise::OmniauthCallbacksController -->
<g id="node16" class="node"><title>Devise::OmniauthCallbacksController</title>
<ellipse fill="none" stroke="black" cx="-372.978" cy="-381.091" rx="146.34" ry="18"/>
<text text-anchor="middle" x="-372.978" y="-376.891" font-family="Times,serif" font-size="14.00">Devise::OmniauthCallbacksController</text>
</g>
<!-- Devise::OmniauthCallbacksController&#45;&gt;OmniauthCallbacksController -->
<g id="edge6" class="edge"><title>Devise::OmniauthCallbacksController&#45;&gt;OmniauthCallbacksController</title>
<path fill="none" stroke="black" d="M-232.532,-375.949C-226.554,-375.73 -220.587,-375.511 -214.678,-375.295"/>
</g>
<!-- Devise::PasswordsController -->
<g id="node17" class="node"><title>Devise::PasswordsController</title>
<ellipse fill="none" stroke="black" cx="456.86" cy="-90.4761" rx="113.041" ry="18"/>
<text text-anchor="middle" x="456.86" y="-86.2761" font-family="Times,serif" font-size="14.00">Devise::PasswordsController</text>
</g>
<!-- Devise::RegistrationsController -->
<g id="node18" class="node"><title>Devise::RegistrationsController</title>
<ellipse fill="none" stroke="black" cx="474.758" cy="171.773" rx="122.695" ry="18"/>
<text text-anchor="middle" x="474.758" y="175.973" font-family="Times,serif" font-size="14.00">Devise::RegistrationsController</text>
</g>
<!-- Devise::RegistrationsController&#45;&gt;RegistrationsController -->
<g id="edge9" class="edge"><title>Devise::RegistrationsController&#45;&gt;RegistrationsController</title>
<path fill="none" stroke="black" d="M521.189,155.081C592.285,129.521 727.206,81.0147 797.026,55.9134"/>
</g>
<!-- Devise::SessionsController -->
<g id="node19" class="node"><title>Devise::SessionsController</title>
<ellipse fill="none" stroke="black" cx="409.899" cy="-384.48" rx="106.292" ry="18"/>
<text text-anchor="middle" x="409.899" y="-380.28" font-family="Times,serif" font-size="14.00">Devise::SessionsController</text>
</g>
<!-- Devise::UnlocksController -->
<g id="node20" class="node"><title>Devise::UnlocksController</title>
<ellipse fill="none" stroke="black" cx="134.579" cy="-363.921" rx="105.306" ry="18"/>
<text text-anchor="middle" x="134.579" y="-359.721" font-family="Times,serif" font-size="14.00">Devise::UnlocksController</text>
</g>
<!-- DeviseController&#45;&gt;Devise::ConfirmationsController -->
<g id="edge13" class="edge"><title>DeviseController&#45;&gt;Devise::ConfirmationsController</title>
<path fill="none" stroke="black" d="M214.612,-79.7753C325.461,-128.017 662.896,-274.869 778.721,-325.276"/>
</g>
<!-- DeviseController&#45;&gt;Devise::OmniauthCallbacksController -->
<g id="edge14" class="edge"><title>DeviseController&#45;&gt;Devise::OmniauthCallbacksController</title>
<path fill="none" stroke="black" d="M149.974,-80.809C55.3893,-135.12 -244.493,-307.314 -342.011,-363.31"/>
</g>
<!-- DeviseController&#45;&gt;Devise::PasswordsController -->
<g id="edge15" class="edge"><title>DeviseController&#45;&gt;Devise::PasswordsController</title>
<path fill="none" stroke="black" d="M245.453,-70.508C279.506,-73.7245 321.604,-77.7008 359.247,-81.2562"/>
</g>
<!-- DeviseController&#45;&gt;Devise::RegistrationsController -->
<g id="edge16" class="edge"><title>DeviseController&#45;&gt;Devise::RegistrationsController</title>
<path fill="none" stroke="black" d="M200.624,-46.8657C255.077,-3.43638 396.823,109.615 452.161,153.751"/>
</g>
<!-- DeviseController&#45;&gt;Devise::SessionsController -->
<g id="edge17" class="edge"><title>DeviseController&#45;&gt;Devise::SessionsController</title>
<path fill="none" stroke="black" d="M191.95,-82.3549C232.614,-138.724 356.492,-310.445 396.96,-366.542"/>
</g>
<!-- DeviseController&#45;&gt;Devise::UnlocksController -->
<g id="edge18" class="edge"><title>DeviseController&#45;&gt;Devise::UnlocksController</title>
<path fill="none" stroke="black" d="M176.163,-82.5153C168.238,-136.147 145.127,-292.539 137.248,-345.864"/>
</g>
<!-- Ckeditor::AttachmentFilesController -->
<g id="node23" class="node"><title>Ckeditor::AttachmentFilesController</title>
<ellipse fill="none" stroke="black" cx="-768.24" cy="434.715" rx="140.545" ry="18"/>
<text text-anchor="middle" x="-768.24" y="438.915" font-family="Times,serif" font-size="14.00">Ckeditor::AttachmentFilesController</text>
</g>
<!-- Ckeditor::ApplicationController&#45;&gt;Ckeditor::AttachmentFilesController -->
<g id="edge21" class="edge"><title>Ckeditor::ApplicationController&#45;&gt;Ckeditor::AttachmentFilesController</title>
<path fill="none" stroke="black" d="M-732.82,78.1079C-739.107,141.403 -760.093,352.691 -766.419,416.386"/>
</g>
<!-- Ckeditor::PicturesController -->
<g id="node24" class="node"><title>Ckeditor::PicturesController</title>
<ellipse fill="none" stroke="black" cx="-757.272" cy="-324.946" rx="110.619" ry="18"/>
<text text-anchor="middle" x="-757.272" y="-320.746" font-family="Times,serif" font-size="14.00">Ckeditor::PicturesController</text>
</g>
<!-- Ckeditor::ApplicationController&#45;&gt;Ckeditor::PicturesController -->
<g id="edge22" class="edge"><title>Ckeditor::ApplicationController&#45;&gt;Ckeditor::PicturesController</title>
<path fill="none" stroke="black" d="M-732.256,41.9842C-736.665,-22.6817 -751.639,-242.33 -756.043,-306.933"/>
</g>
</g>
</svg>

<svg width="1862pt" height="1192pt" viewBox="0 0 1861.79 1192.02" xmlns="http://www.w3.org/2000/svg"><g class="graph" transform="translate(913.012 683.5)"><path fill="#fff" d="M-913.012 508.522V-683.5h1861.79V508.522h-1861.79z"/><g class="node"><text x="614.312" y="-665.1" font-family="Times,serif" font-size="13">Controllers diagram</text><text x="614.312" y="-652.1" font-family="Times,serif" font-size="13">Date: Mar 07 2015 - 22:07</text><text x="614.312" y="-639.1" font-family="Times,serif" font-size="13">Migration version: 20150303221447</text><text x="614.312" y="-626.1" font-family="Times,serif" font-size="13">Generated by RailRoady 1.3.0</text><text x="614.312" y="-613.1" font-family="Times,serif" font-size="13">http://railroady.prestonlee.com</text></g><g class="node"><ellipse fill="none" stroke="#000" cx="-415.392" cy="454.299" rx="68.137" ry="18"/><text text-anchor="middle" x="-415.392" y="458.499" font-family="Times,serif" font-size="14">AlertsController</text></g><g class="node"><ellipse fill="none" stroke="#000" cx="838.897" cy="434.223" rx="67.662" ry="18"/><text text-anchor="middle" x="838.897" y="438.423" font-family="Times,serif" font-size="14">AlliesController</text></g><g class="node"><ellipse fill="none" stroke="#000" cx="-28.164" cy="170.104" rx="88.417" ry="18"/><text text-anchor="middle" x="-28.164" y="174.304" font-family="Times,serif" font-size="14">ApplicationController</text></g><g class="edge"><path fill="none" stroke="#000" d="M-51.804 187.453l-340.257 249.723"/></g><g class="edge"><path fill="none" stroke="#000" d="M20.937 185.061L794.272 420.63"/></g><g class="node"><ellipse fill="none" stroke="#000" cx="-74.083" cy="-74.76" rx="84.05" ry="18"/><text text-anchor="middle" x="-74.083" y="-70.559" font-family="Times,serif" font-size="14">CategoriesController</text></g><g class="edge"><path fill="none" stroke="#000" d="M-31.54 152.098L-70.702-56.728"/></g><g class="node"><ellipse fill="none" stroke="#000" cx="209.309" cy="186.966" rx="90.346" ry="18"/><text text-anchor="middle" x="209.309" y="191.166" font-family="Times,serif" font-size="14">MedicationsController</text></g><g class="edge"><path fill="none" stroke="#000" d="M55.226 176.025l68.885 4.891"/></g><g class="node"><ellipse fill="none" stroke="#000" cx="-364.107" cy="-78.523" rx="71.053" ry="18"/><text text-anchor="middle" x="-364.107" y="-74.323" font-family="Times,serif" font-size="14">MoodsController</text></g><g class="edge"><path fill="none" stroke="#000" d="M-51.787 152.621l-289.169-214.01"/></g><g class="node"><ellipse fill="none" stroke="#000" cx="226.762" cy="486.522" rx="67.177" ry="18"/><text text-anchor="middle" x="226.762" y="490.722" font-family="Times,serif" font-size="14">PagesController</text></g><g class="edge"><path fill="none" stroke="#000" d="M-13.728 188.022L212.484 468.8"/></g><g class="node"><ellipse fill="none" stroke="#000" cx="-168.742" cy="476.67" rx="70.084" ry="18"/><text text-anchor="middle" x="-168.742" y="480.87" font-family="Times,serif" font-size="14">ProfileController</text></g><g class="edge"><path fill="none" stroke="#000" d="M-36.537 188.363l-123.876 270.144"/></g><g class="node"><ellipse fill="none" stroke="#000" cx="29.992" cy="466.58" rx="70.534" ry="18"/><text text-anchor="middle" x="29.992" y="470.78" font-family="Times,serif" font-size="14">SearchController</text></g><g class="edge"><path fill="none" stroke="#000" d="M-24.614 188.203L26.414 448.34"/></g><g class="node"><ellipse fill="none" stroke="#000" cx="-300.974" cy="164.769" rx="81.159" ry="18"/><text text-anchor="middle" x="-300.974" y="168.969" font-family="Times,serif" font-size="14">StrategiesController</text></g><g class="edge"><path fill="none" stroke="#000" d="M-115.985 168.386l-103.812-2.03"/></g><g class="node"><ellipse fill="none" stroke="#000" cx="474.053" cy="480.211" rx="76.218" ry="18"/><text text-anchor="middle" x="474.053" y="484.411" font-family="Times,serif" font-size="14">MomentsController</text></g><g class="edge"><path fill="none" stroke="#000" d="M-.447 187.218l447.176 276.121"/></g><g class="node"><ellipse fill="none" stroke="#000" cx="178.867" cy="-64.219" rx="71.027" ry="18"/><text text-anchor="middle" x="178.867" y="-60.019" font-family="Times,serif" font-size="14">DeviseController</text></g><g class="edge"><path fill="none" stroke="#000" d="M-12.262 152.106L163.194-46.48"/></g><g class="node"><ellipse fill="none" stroke="#000" cx="-731.025" cy="60.036" rx="124.14" ry="18"/><text text-anchor="middle" x="-731.025" y="64.236" font-family="Times,serif" font-size="14">Ckeditor::ApplicationController</text></g><g class="edge"><path fill="none" stroke="#000" d="M-98.45 159.097l-548.103-85.833"/></g><g class="node"><ellipse fill="none" stroke="#000" cx="-100.854" cy="-371.128" rx="116.899" ry="18"/><text text-anchor="middle" x="-100.854" y="-366.928" font-family="Times,serif" font-size="14">OmniauthCallbacksController</text></g><g class="node"><ellipse fill="none" stroke="#000" cx="841.364" cy="39.973" rx="93.253" ry="18"/><text text-anchor="middle" x="841.364" y="44.173" font-family="Times,serif" font-size="14">RegistrationsController</text></g><g class="node"><ellipse fill="none" stroke="#000" cx="818.242" cy="-342.476" rx="126.571" ry="18"/><text text-anchor="middle" x="818.242" y="-338.276" font-family="Times,serif" font-size="14">Devise::ConfirmationsController</text></g><g class="node"><ellipse fill="none" stroke="#000" cx="-372.978" cy="-381.091" rx="146.34" ry="18"/><text text-anchor="middle" x="-372.978" y="-376.891" font-family="Times,serif" font-size="14">Devise::OmniauthCallbacksController</text></g><g class="edge"><path fill="none" stroke="#000" d="M-232.532-375.949l17.854.654"/></g><g class="node"><ellipse fill="none" stroke="#000" cx="456.86" cy="-90.476" rx="113.041" ry="18"/><text text-anchor="middle" x="456.86" y="-86.276" font-family="Times,serif" font-size="14">Devise::PasswordsController</text></g><g class="node"><ellipse fill="none" stroke="#000" cx="474.758" cy="171.773" rx="122.695" ry="18"/><text text-anchor="middle" x="474.758" y="175.973" font-family="Times,serif" font-size="14">Devise::RegistrationsController</text></g><g class="edge"><path fill="none" stroke="#000" d="M521.189 155.081l275.837-99.168"/></g><g class="node"><ellipse fill="none" stroke="#000" cx="409.899" cy="-384.48" rx="106.292" ry="18"/><text text-anchor="middle" x="409.899" y="-380.28" font-family="Times,serif" font-size="14">Devise::SessionsController</text></g><g class="node"><ellipse fill="none" stroke="#000" cx="134.579" cy="-363.921" rx="105.306" ry="18"/><text text-anchor="middle" x="134.579" y="-359.721" font-family="Times,serif" font-size="14">Devise::UnlocksController</text></g><g class="edge"><path fill="none" stroke="#000" d="M214.612-79.775l564.109-245.501"/></g><g class="edge"><path fill="none" stroke="#000" d="M149.974-80.809L-342.011-363.31"/></g><g class="edge"><path fill="none" stroke="#000" d="M245.453-70.508l113.794-10.748"/></g><g class="edge"><path fill="none" stroke="#000" d="M200.624-46.866l251.537 200.617"/></g><g class="edge"><path fill="none" stroke="#000" d="M191.95-82.355l205.01-284.187"/></g><g class="edge"><path fill="none" stroke="#000" d="M176.163-82.515l-38.915-263.349"/></g><g class="node"><ellipse fill="none" stroke="#000" cx="-768.24" cy="434.715" rx="140.545" ry="18"/><text text-anchor="middle" x="-768.24" y="438.915" font-family="Times,serif" font-size="14">Ckeditor::AttachmentFilesController</text></g><g class="edge"><path fill="none" stroke="#000" d="M-732.82 78.108l-33.599 338.278"/></g><g class="node"><ellipse fill="none" stroke="#000" cx="-757.272" cy="-324.946" rx="110.619" ry="18"/><text text-anchor="middle" x="-757.272" y="-320.746" font-family="Times,serif" font-size="14">Ckeditor::PicturesController</text></g><g class="edge"><path fill="none" stroke="#000" d="M-732.256 41.984l-23.787-348.917"/></g></g></svg>
